X:5581
T:Road to the Glen, The
O:england
M:C|
L:1/8
C:Ed Reavy
R:reel
K:Ddor
DE|:FdcB ADFD|G2dG BGdG|F2cF Acde|fedc ABcA|
~d3e f2ag|fedc AFDE|1 FEFG AGFG|Addc d2DE:|2 FEFG A2DE|FDEC D2de||
|:f2ag fedf|ec~c2 Gceg|f2ag fede|1 fdec Adde| f2fg gffe|fedc AFDE|FEFG
AGFG|Addc d2de:|2 fdec Addc| d2~d2 Adfd|gc~c2 acgc|agfe dcAG|FDEC D2||


